X: 22542
T: Lady Home's
R: jig
M: 6/8
K: Cmajor
c2(g g)eg|gea g2e|ceg {a}gfe|ded f2d|
c2(g g)eg|gea g2e|f>ga gfe|ded f2d:|
|:c>dc cGc|cGc {cd}e2d|c>dc cGE|DED {f}e2d|
c>dc cGE|CDE CGE|FdF EcE|1 DED e2d:|2 DED C3||

